X:1
T:Title
%%score { 1 | 2 }
L:1/8
M:4/4
K:F
V:1 treble nm="Grand Piano"
V:2 bass 
V:1
 z4 z2[Q:1/4=90] F2 | A2 A2 [DG]2 [EG]2 | [DF]2 [DF]2 [^CE]2 [CE]2 | D2 D2 D2 D2 |[M:3/4] C6 | %5
[M:1/4] F2 |[M:4/4] E2 G2 F2 [FA]2 | [CG]2 [CGB]2 [CFA]2 [CEc]2 | [CF]2 [DFG]2 [FA]2 [B,EG]2 | %9
[M:7/4] [A,F]6 z2 z2 z4 |[M:4/4] [B,DF]8 | [F,A,CF]8 |] %12
V:2
 z4 z2 [F,A,]2 | [F,CF]2 [F,CF]2 [C,B,]2 [C,B,]2 | [D,A,]2 [D,A,]2 [A,,A,]2 [A,,G,]2 | %3
 [B,,F,]2 [C,E,C]2 [D,F,B,]2 [E,G,B,]2 |[M:3/4] [F,A,]6 |[M:1/4] [F,A,C]2 | %6
[M:4/4] [C,G,C]2 [C,B,C]2 [D,A,]2 [D,F,]2 | E,2 E,2 F,2 G,2 | A,2 B,2 C2 C,2 | %9
[M:7/4] F,6 z2 z2 z4 |[M:4/4] B,,8 | F,,8 |] %12

